X:59
T:Turkey in the Straw
K:G
M:4/4
L:1/4
Z:abc-transcription Josh Larios <hades@elsewhere.org>, 2014.04.15
B:Sarah Comer, Dusty Strings dance band class.
|: B/A/ | "G"GGGB,/C/ | DD/D/DG/A/ | BBB/A/G/A/ | "D"BAAB/A/ |
"G"GGGB,/C/ | DD/D/DG/A/ | "C"Bdd/B/G/A/ |1 "D"BA"G"G :|2 "D"BA"G"G2 ||
|: "G"B/dB/dd | B/dB/d2 | "C"c/ec/ee | c/ec/ef |
"G"ggdd | BB"D"AG/A/ | "G"Bdd/B/G/A/ |1 "D"BA"G"G2 :|2 "D"BA"G"G |]

